assets/svg/app/trash.svg

<svg viewBox="0 0 24 24" fill="none" xmlns="http://www.w3.org/2000/svg">
    <path fill-rule="evenodd" clip-rule="evenodd" d="M14.5 3h-5l-1 1H5v2h14V4h-3.5l-1-1zM16 9v10H8V9h8zM6 7h12v12c0 1.1-.9 2-2 2H8c-1.1 0-2-.9-2-2V7z" fill="#828295"/>
</svg>

<svg width="24" height="24" viewBox="0 0 24 24" fill="none" xmlns="http://www.w3.org/2000/svg">
<path fill-rule="evenodd" clip-rule="evenodd" d="M14.5 3H9.5L8.5 4H5V6H19V4H15.5L14.5 3ZM16 9V19H8V9H16ZM6 7H18V19C18 20.1 17.1 21 16 21H8C6.9 21 6 20.1 6 19V7Z" fill="#828295"/>
</svg>
